!!!!SEGMENT: pl-sa--286-a-vii-46_hasse-johann-adolf--lauda-sion-salvatorem.krn
!!!cenid: 17xx:380
!!!COM: Hasse, Johann Adolf
!!!COM-rismid: pe51928
!!!CDT: 1699/03/25-1783/12/16
!!!CNT: German
!!!OTL: Lauda Sion Salvatorem
!!!PDT:
!!!AGN: Sacred
!!!SMS-siglum: PL-SA
!!!SMS-shelfmark: 286/A VII 46
!!!SMS-shelfwork: W
!!!NIFC-rismid: 1001029983
!!!URL-scan: http://bc.bdsandomierz.pl/dlibra/publication/1780/edition/1748/content
!!!ONB-nifc:
!!!AIN: 2 empty 2 violn 1 vox
!!!key:
**kern	**kern	**kern	**dynam	**kern	**dynam	**kern	**text	**text
*part5	*part4	*part3	*part3	*part2	*part2	*part1	*part1	*part1
*group2	*group2	*group1	*	*group1	*	*	*	*
*staff5	*staff4	*staff3	*	*staff2	*	*staff1	*staff1	*staff1
*Iempty	*Iempty	*Ivioln	*	*Ivioln	*	*Ivox	*	*
*I"Fundamento	*I"Violia	*I"Violino Secundo	*	*I"Violino Primo	*	*I"Canto	*	*
*I'b.c.	*I'vl	*I'vn 2	*	*I'vn 1	*	*I'S	*	*
*clefF4	*clefC3	*clefG2	*	*clefG2	*	*clefC1	*	*
*k[b-e-]	*k[b-e-]	*k[b-e-]	*	*k[b-e-]	*	*k[b-e-]	*	*
*B-:	*B-:	*B-:	*	*B-:	*	*B-:	*	*
*M4/4	*M4/4	*M4/4	*	*M4/4	*	*M4/4	*	*
*met(c|)	*met(c|)	*met(c)	*	*met(c|)	*	*met(c|)	*	*
=1	=1	=1	=1	=1	=1	=1	=1	=1
*	*	*2\right	*	*2\right	*	*	*	*
!	!	!	!	!	!	!LO:TX:a:t=P:problem=w pierwszej linijce omyłkowo wpisane bemole, jak w kluczu wiolinowym, w następnych b- ee-	!	!
!LO:TX:a:t=Allebreve Moderato	!LO:TX:a:t=Allebreve Molto	!LO:TX:a:t=Allebreve Moderato	!	!LO:TX:a:t=Allebreve Moderato	!	!LO:TX:a:t=Allebreve Moderato	!	!
4r	4r	2bb-\	.	2bb-\	.	00r	.	.
4B-\	4f\	.	.	.	.	.	.	.
4A\	4f\	2ccc\	.	2ccc\	.	.	.	.
4F\	4a\	.	.	.	.	.	.	.
=2	=2	=2	=2	=2	=2	=2	=2	=2
4B-\	4b-\	4ddd\	.	4ddd\	.	.	.	.
4c\	8.g\L	2.eee-\	.	2.eee-\	.	.	.	.
.	16a\Jk	.	.	.	.	.	.	.
4G\	4b-\	.	.	.	.	.	.	.
4A\	4cc\	.	.	.	.	.	.	.
=3	=3	=3	=3	=3	=3	=3	=3	=3
!	!	!LO:TX:a:t=P:problem=w taktach 3-4 poprawiane dźwięki, zapisano obie wersje	!	!	!	!	!	!
4B-\	4b-\	(16eee- 16ccc\LL	.	(16ddd\LL	.	.	.	.
.	.	16ccc 16aa\JJ)	.	16ccc\JJ)	.	.	.	.
.	.	4.ccc 4.aa\	.	4.bb-\	.	.	.	.
4G\	4d\	.	.	.	.	.	.	.
4E-\	4g\	4ccc 4aa\	.	4ccc\	.	.	.	.
.	.	8qqgg/	.	8qqbb-/	.	.	.	.
4F\	4c\	4aa 4ff\	.	4aa\	.	.	.	.
=4	=4	=4	=4	=4	=4	=4	=4	=4
4r	4r	4bb- 4gg\	.	4bb-\	.	.	.	.
4BB-/	4d\	[4ff 4dd\	.	[4ff\	.	.	.	.
4D/	4B-\	8.ff] 8.dd\L	.	8.ff\L]	.	.	.	.
!	!	!	!	!LO:N:vis=8.	!	!	!	!
.	.	16ee- 16cc\	.	16ee-\K	.	.	.	.
4F\	4A\	8.dd 8.b-\	.	8.dd\	.	.	.	.
!	!	!	!	!LO:N:vis=8	!	!	!	!
.	.	16cc 16a\Jk	.	16cc\Jk	.	.	.	.
=5	=5	=5	=5	=5	=5	=5	=5	=5
*	*	*	*	*	*below	*	*	*
!	!	!	!	!	!LO:DY:t=p	!	!	!
4r	4B-/	2b-\	p	2b-\	p	00r	.	.
4B-\	4f\	.	.	.	.	.	.	.
4A\	4f\	2cc\	.	2ccT\	.	.	.	.
4F\	4a\	.	.	.	.	.	.	.
=6	=6	=6	=6	=6	=6	=6	=6	=6
4B-\	4b-\	4dd\	.	4dd\	.	.	.	.
4c\	8.g\L	2.ee-\	.	2.ee-\	.	.	.	.
.	16a\Jk	.	.	.	.	.	.	.
4G\	4b-\	.	.	.	.	.	.	.
4A\	4cc\	.	.	.	.	.	.	.
=7	=7	=7	=7	=7	=7	=7	=7	=7
4B-\	4f\	(16dd\LL	.	16dd\LL	.	.	.	.
.	.	16cc\JJ)	.	16cc\JJ	.	.	.	.
.	.	4.b-\	.	4.b-\	.	.	.	.
4G\	4g\	.	.	.	.	.	.	.
4E-\	4g\	4cc\	.	4cc\	.	.	.	.
4F\	4c\	4a\	.	4a/	.	.	.	.
=8	=8	=8	=8	=8	=8	=8	=8	=8
4r	4r	4b-/	.	4b-/	.	.	.	.
4BB-/	4d\	2.f/	.	2.f/	.	.	.	.
4BB-/	4d\	.	.	.	.	.	.	.
4C/	4A/	.	.	.	.	.	.	.
=9	=9	=9	=9	=9	=9	=9	=9	=9
!	!	!	!	!	!LO:DY:t=for	!	!	!
4D\	4B-/	(16ff\LL	.	16ff\LL	f	00r	.	.
.	.	16ee-\	.	16ee-\	.	.	.	.
.	.	16dd\	.	16dd\	.	.	.	.
.	.	16cc\JJ)	.	16cc\JJ	.	.	.	.
4D\	4f\	2b-\	.	2b-\	.	.	.	.
4D\	4f\	.	.	.	.	.	.	.
4En\	4g\	4cc\	.	4b-\	.	.	.	.
=10	=10	=10	=10	=10	=10	=10	=10	=10
.	.	8qqb-/	.	8qqb-/	.	.	.	.
4r	4r	2.a/	.	2.a/	.	.	.	.
4F\	4c/	.	.	.	.	.	.	.
4FF/	4c/	.	.	.	.	.	.	.
4GG/	4B-/	4b-\	.	4b-/	.	.	.	.
!	!	!	!	!LO:LB:g=original	!	!	!	!
=11	=11	=11	=11	=11	=11	=11	=11	=11
4AA/	4A/	16cc\LL	.	16cc\LL	.	.	.	.
.	.	16b-\	.	16b-\	.	.	.	.
.	.	16a\	.	16a\	.	.	.	.
.	.	16g\JJ	.	16g\JJ	.	.	.	.
4AA/	4c/	2f/	.	2f/	.	.	.	.
4AA/	4c/	.	.	.	.	.	.	.
4AA/	4c/	4e-/	.	4e-/	.	.	.	.
!	!	!LO:LB:g=original	!	!	!	!	!	!
=12	=12	=12	=12	=12	=12	=12	=12	=12
.	.	8qqf/	.	.	.	.	.	.
4r	4r	4e-/	.	4e-/	.	.	.	.
4BB-/	4B-/	2.d/	.	2.d/	.	.	.	.
4C/	4c/	.	.	.	.	.	.	.
4D/	4d/	.	.	.	.	.	.	.
=13	=13	=13	=13	=13	=13	=13	=13	=13
4r	4r	16gg\LL	.	16gg\LL	.	00r	.	.
.	.	16ff\	.	16ff\	.	.	.	.
.	.	16ee-\	.	16ee-\	.	.	.	.
.	.	16dd\JJ	.	16dd\JJ	.	.	.	.
4E-\	4g\	2.cc\	.	2.cc\	.	.	.	.
4E-\	4g\	.	.	.	.	.	.	.
4E-\	4g\	.	.	.	.	.	.	.
=14	=14	=14	=14	=14	=14	=14	=14	=14
4r	4r	16g/LL	p	16g/LL	p	.	.	.
.	.	16f/	.	16f/	.	.	.	.
.	.	16e-/	.	16e-/	.	.	.	.
.	.	16d/JJ	.	16d/JJ	.	.	.	.
4E-\	4G/	2.c/	.	2.c/	.	.	.	.
4E-\	4G/	.	.	.	.	.	.	.
4E-\	4G/	.	.	.	.	.	.	.
!LO:LB:g=original	!LO:LB:g=original	!	!	!	!	!	!	!
=15	=15	=15	=15	=15	=15	=15	=15	=15
!	!	!	!LO:DY:t=f	!	!	!	!	!
4r	4r	16gg\LL	f	16gg\LL	f	.	.	.
.	.	16ff\	.	16ff\	.	.	.	.
.	.	16een\	.	16een\	.	.	.	.
.	.	16dd\JJ	.	16dd\JJ	.	.	.	.
4En\	4g\	2cc\	.	2cc\	.	.	.	.
4E\	4g\	.	.	.	.	.	.	.
4E\	4g\	4b-\	.	4b-\	.	.	.	.
=16	=16	=16	=16	=16	=16	=16	=16	=16
*2\right	*	*	*	*	*	*	*	*
2F\	2c/	4b-T\	.	4b-/	.	.	.	.
.	.	4a\	.	4a/	.	.	.	.
!	!	!LO:TX:b:t=Stacat	!	!LO:TX:b:t=Stacatto	!	!	!	!
4F\	4c\	8.b-\L	.	8.a\L	.	.	.	.
.	.	16ff\K	.	16ff\K	.	.	.	.
4E-X\	4c\	8.gg\	.	8.gg\	.	.	.	.
.	.	16aa\Jk	.	16aa\Jk	.	.	.	.
=17	=17	=17	=17	=17	=17	=17	=17	=17
2D/	2B-/	8.bb-\L	.	8.bb-\L	.	00r	.	.
.	.	16ff\Jk	.	16ff\Jk	.	.	.	.
.	.	[4ff\	.	[4ff\	.	.	.	.
!	!	!LO:TX:a:t=P:problem=mixed beam	!	!LO:TX:a:t=P:problem=mixed beam	!	!	!	!
2C/	2A/	8.ff\L]	.	8.ff\L]	.	.	.	.
.	.	16f/K	.	16f/K	.	.	.	.
.	.	8.g/	.	8.g/	.	.	.	.
.	.	16a/Jk	.	16a/Jk	.	.	.	.
=18	=18	=18	=18	=18	=18	=18	=18	=18
*	*2\right	*	*	*	*	*	*	*
2BB-/	2d\	8.b-/L	.	8.b-/L	.	.	.	.
.	.	16f/Jk	.	16f/Jk	.	.	.	.
.	.	[4f/	.	[4f/	.	.	.	.
!	!	!LO:TX:a:t=P:problem=mixed beam	!	!LO:TX:a:t=P:problem=mixed beam	!	!	!	!
2AA/	2c\	8.f/L]	.	8.f/L]	.	.	.	.
.	.	16ff\K	.	16ff\K	.	.	.	.
.	.	8.gg\	.	8.gg\	.	.	.	.
.	.	16aa\Jk	.	16aa\Jk	.	.	.	.
=19	=19	=19	=19	=19	=19	=19	=19	=19
2D/	2B-/	8.bb-\L	.	8.bb-\L	.	.	.	.
.	.	16ff\Jk	.	16ff\Jk	.	.	.	.
.	.	2ff\	.	2ff\	.	.	.	.
2C/	2A/	.	.	.	.	.	.	.
.	.	4ee-\	.	4ee-\	.	.	.	.
=20	=20	=20	=20	=20	=20	=20	=20	=20
4BB-/	8.B-\L	8.dd\L	.	8.dd\L	.	.	.	.
.	16c\Jk	16ee-\Jk	.	16ee-\Jk	.	.	.	.
8.BB-/L	8.d\L	2ff\	.	2ff\	.	.	.	.
16C/Jk	16e-\Jk	.	.	.	.	.	.	.
4D\	4f\	.	.	.	.	.	.	.
4E-\	4g\	4ee-\	.	4ee-\	.	.	.	.
!	!	!LO:LB:g=original	!	!LO:LB:g=original	!	!	!	!
=21	=21	=21	=21	=21	=21	=21	=21	=21
4r	4r	4.g/	.	4.g/	.	00r	.	.
4E-\	4e-\	.	.	.	.	.	.	.
.	.	8cc\	.	8cc\	.	.	.	.
.	8qqd/	8qqb-/	.	8qqb-/	.	.	.	.
4F\	2c\	2a/	.	2a/	.	.	.	.
4FF/	.	.	.	.	.	.	.	.
=22	=22	=22	=22	=22	=22	=22	=22	=22
4BB-/	4B-/	4b-\	.	4b-\	.	.	.	.
*	*	*Xtuplet	*	*Xtuplet	*	*	*	*
4r	4r	12ff\L|	.	12ff\L|	.	.	.	.
.	.	12dd\|	.	12dd\|	.	.	.	.
.	.	12b-\J|	.	12b-\J|	.	.	.	.
4D\	4d\	4d/	.	4d/	.	.	.	.
4r	4r	12ff\L|	.	12ff\L|	.	.	.	.
.	.	12dd\|	.	12dd\|	.	.	.	.
.	.	12b-\J|	.	12b-\J|	.	.	.	.
=23	=23	=23	=23	=23	=23	=23	=23	=23
4E-\	4e-\	4e-/	.	4e-/	.	.	.	.
4r	4r	12ff\L|	.	12ff\L|	.	.	.	.
.	.	12dd\|	.	12dd\|	.	.	.	.
.	.	12b-\J|	.	12b-\J|	.	.	.	.
4F\	4f\	4f/	.	4f/	.	.	.	.
4r	4r	16f/LL	.	16f/LL	.	.	.	.
.	.	16e-/	.	16e-/	.	.	.	.
.	.	16d/	.	16d/	.	.	.	.
.	.	16c/JJ	.	16c/JJ	.	.	.	.
=24	=24	=24	=24	=24	=24	=24	=24	=24
4BB-/	4B-/	4B-/	.	4B-/	.	.	.	.
4r	4r	12ff\L|	.	12ff\L|	p	.	.	.
.	.	12dd\|	.	12dd\|	.	.	.	.
.	.	12b-\J|	.	12b-\J|	.	.	.	.
4D/	4d\	4d/	.	4d/	.	.	.	.
4r	4r	12ff\L|	.	12ff\L|	.	.	.	.
.	.	12dd\|	.	12dd\|	.	.	.	.
.	.	12b-\J|	.	12b-\J|	.	.	.	.
=25	=25	=25	=25	=25	=25	=25	=25	=25
4E-\	4e-\	4e-/	.	4e-/	.	0r	.	.
4r	4r	12ff\L|	.	12ff\L|	.	.	.	.
.	.	12dd\|	.	12dd\|	.	.	.	.
.	.	12b-\J|	.	12b-\J|	.	.	.	.
4F\	4f\	4f/	.	4f/	.	.	.	.
4r	4r	16f/LL	.	16f/LL	f	.	.	.
.	.	16e-/	f	16e-/	.	.	.	.
.	.	16d/	.	16d/	.	.	.	.
.	.	16c/JJ	.	16c/JJ	.	.	.	.
=26	=26	=26	=26	=26	=26	=26	=26	=26
4BB-/	4B-/	4B-/	.	4B-/	.	.	.	.
4r	4r	4bb-\	.	4bb-\	.	.	.	.
2r	2r	4B-/	.	4B-/	.	.	.	.
.	.	4r	.	4r	.	.	.	.
!	!	!LO:TX:a:t=P:problem=podwójna kreska taktowa	!	!LO:TX:a:t=P:problem=podwójna kreska taktowa	!	!	!	!
!	!	!LO:TX:t=[segno]:problem=znak segno na kresce taktowej	!	!LO:TX:t=[segno]:problem=znak segno na kresce taktowej	!	!	!	!
=27	=27	=27	=27	=27	=27	=27	=27	=27
*	*	*	*	*	*	*2\right	*	*
!	!	!	!	!	!	!LO:TX:b:t=P:problem=w pierwszych 2 taktach podpisany również fragment innego tekstu	!	!
4r	4r	2d/	p	2b-\	p	2b-\	In	Lau-
4B-\	4f\	.	.	.	.	.	.	.
4A\	4f\	4c/	.	2cc\	.	2cc\	e-	-da
4F\	4F/	4a/	.	.	.	.	.	.
=28	=28	=28	=28	=28	=28	=28	=28	=28
4B-\	4B-/	4b-/	.	4dd\	.	4dd\	-xi-	Si-
4c\	4c/	8.g/L	.	2.ee-\	.	2.ee-\	-tu	-on
.	.	16a/Jk	.	.	.	.	.	.
4G\	4G/	4b-\	.	.	.	.	.	.
4A\	4A/	4cc\	.	.	.	.	.	.
!	!LO:LB:g=original	!	!	!	!	!	!	!
=29	=29	=29	=29	=29	=29	=29	=29	=29
4B-\	4B-\	4f/	.	4dd\	.	(16dd\LL	Sal-	.
.	.	.	.	.	.	16cc\JJ)	.	.
.	.	.	.	.	.	4.b-\	.	.
4G\	4d\	4b-/	.	4dd\	.	.	.	.
4E-\	4g\	4b-/	.	4cc\	.	4cc\	.	.
4F\	4f\	4a/	.	4cc\	.	4a\	-va-	.
!LO:LB:g=original	!	!	!	!	!	!	!	!
=30	=30	=30	=30	=30	=30	=30	=30	=30
!	!	!	!	!LO:TX:a:t=P:problem=mixed beam	!	!	!	!
4r	4d\	8.b-\L	.	8.b-/L	.	4b-\	-to-	.
.	.	16bb-\Jk	.	16bb-\Jk	.	.	.	.
4BB-/	4d\	[4ff\	.	[4ff\	.	2f/	-rem:	.
!	!	!LO:LB:g=original	!	!	!	!	!	!
!	!	!LO:TX:a:t=P:problem=brak zakończenia ligatury	!	!	!	!	!	!
4D/	8.d\L	8.ff\L]	.	8.ff\L]	.	.	.	.
.	16c\Jk	16ee-\Jk	.	16ee-\K	.	.	.	.
4F\	8.B-\L	8.dd\L	.	8.dd\	.	4r	.	.
.	16A\Jk	16cc\Jk	.	16cc\Jk	.	.	.	.
!	!	!	!	!LO:LB:g=original	!	!	!	!
=31	=31	=31	=31	=31	=31	=31	=31	=31
4r	4B-\	4b-/	.	2b-\	.	2b-\	lau-	.
4B-\	4f\	4d/	.	.	.	.	.	.
4A\	4f\	4c/	.	2cc\	.	2cc\	-da	.
4F\	4F/	4a/	.	.	.	.	.	.
=32	=32	=32	=32	=32	=32	=32	=32	=32
4B-\	4B-\	4b-/	.	4dd\	.	4dd\	du-	.
4c\	4c\	8.g/L	.	2.ee-\	.	2.ee-\	-cem	.
.	.	16a/Jk	.	.	.	.	.	.
4G\	4G\	4b-\	.	.	.	.	.	.
4A\	4A\	4cc\	.	.	.	.	.	.
=33	=33	=33	=33	=33	=33	=33	=33	=33
4B-\	4B-\	4f/	.	4dd\	.	(16dd\LL	et	.
.	.	.	.	.	.	16cc\JJ)	.	.
.	.	.	.	.	.	4.b-\	.	.
4G\	4d\	4b-\	.	4dd\	.	.	.	.
4E-\	4g\	4b-\	.	4cc\	.	4cc\	.	.
4F\	4f\	4a\	.	4cc\	.	4a\	Pa-	.
=34	=34	=34	=34	=34	=34	=34	=34	=34
4r	4r	4b-\	.	4b-\	.	4b-\	-ſto-	.
4BB-/	4d\	4d/	.	2f/	.	2f/	-rem	.
4BB-/	4d\	4d/	.	.	.	.	.	.
4C/	4c\	4e-/	.	4r	.	4r	.	.
!	!	!	!	!	!	!LO:LB:g=original	!	!
=35	=35	=35	=35	=35	=35	=35	=35	=35
!	!	!	!LO:DY:t=f	!	!LO:DY:a:t=f	!	!	!
4D\	4B-\	4f/	f	4ff\	f	16ff\LL	lau-	.
.	.	.	.	.	.	(16ee-\	.	.
.	.	.	.	.	.	16dd\	.	.
.	.	.	.	.	.	16cc\JJ)	.	.
!	!	!	!	!	!LO:DY:a	!	!	!
4D\	4d\	4f/	p	2b-\	p	2b-\	.	.
4D\	4d\	4f/	.	.	.	.	.	.
4En\	4en\	4g/	.	4gg\	.	4cc\	-da	.
=36	=36	=36	=36	=36	=36	=36	=36	=36
.	.	.	.	8qqb-/	.	8qqb-/	.	.
4r	4r	4r	.	2.a/	.	2.a\	Si-	.
4F\	4f\	4c/	.	.	.	.	.	.
4FF/	4F/	4c/	.	.	.	.	.	.
4GG/	4G/	4B-/	.	4b-/	.	4b-\	-on	.
=37	=37	=37	=37	=37	=37	=37	=37	=37
4AA/	4A/	4f/	.	4cc\	.	16cc\LL	Sal-	.
.	.	.	.	.	.	16b-\	.	.
.	.	.	.	.	.	16a\	.	.
.	.	.	.	.	.	16g\JJ	.	.
4AA/	4A/	4f/	.	4cc\	.	2f/	.	.
4AA/	4A/	4f/	.	4cc\	.	.	.	.
4AA/	4A/	4cc\	.	4ee-\	.	4e-/	-va-	.
=38	=38	=38	=38	=38	=38	=38	=38	=38
4r	4r	4cc\	.	4ee-\	.	4e-/	-to-	.
4BB-/	4B-/	2.b-\	.	4dd\	.	2d/	-rem	.
4C/	4c/	.	.	4ee-\	.	.	.	.
4D/	4d/	.	.	4ff\	.	4r	.	.
=39	=39	=39	=39	=39	=39	=39	=39	=39
4E-\	4e-\	4b-\	f	4gg\	f	16gg\LL	lau-	.
.	.	.	.	.	.	16ff\	.	.
.	.	.	.	.	.	16ee-\	.	.
.	.	.	.	.	.	16dd\JJ	.	.
4E-\	4e-\	2b-\	p	2cc\	p	2cc\	-da	.
4En\	4en\	.	.	.	.	.	.	.
4E\	4e\	4b-\	.	4cc\	.	4dd\	.	.
=40	=40	=40	=40	=40	=40	=40	=40	=40
4F\	4f\	4a/	.	4cc\	.	8cc\L	Du-	.
.	.	.	.	.	.	8b-\J	.	.
4F\	4f\	4a/	.	4cc\	.	2cc\	.	.
4F\	4f\	4a/	.	4cc\	.	.	.	.
4F\	4f\	4a/	.	4cc\	.	4cc\	-cem	.
=41	=41	=41	=41	=41	=41	=41	=41	=41
4E-\	4e-X\	4g/	.	4cc\	.	16gg\LL	et	.
.	.	.	.	.	.	16ff\	.	.
.	.	.	.	.	.	16ee-\	.	.
.	.	.	.	.	.	16dd\JJ	.	.
4E-\	4e-\	4cc\	.	4cc\	.	2cc\	Pa-	.
4En\	4en\	4b-\	.	4cc\	.	.	.	.
4E\	4e\	4b-\	.	4cc\	.	4cc\	.	.
!	!	!LO:LB:g=original	!	!	!	!	!	!
=42	=42	=42	=42	=42	=42	=42	=42	=42
!	!	!	!	!LO:TX:a:t=P:problem=takt zapisany repetycją	!	!	!	!
4F\	4f\	4a/	.	4cc\yy	.	8cc\L	-sto-	.
.	.	.	.	.	.	8b-\J	.	.
4F\	4f\	4a/	.	4cc\yy	.	2cc\	-rem	.
4F\	4f\	4a/	.	4cc\yy	.	.	.	.
4F\	4f\	4a/	.	4cc\yy	.	(8b-\L	in	.
.	.	.	.	.	.	8a\J)	.	.
!	!LO:LB:g=original	!	!	!	!	!LO:LB:g=original	!	!
=43	=43	=43	=43	=43	=43	=43	=43	=43
4BB-/	4B-/	4b-/	.	4dd\	.	16dd\LL	hy-	.
.	.	.	.	.	.	16cc\	.	.
.	.	.	.	.	.	16b-\	.	.
.	.	.	.	.	.	16a\JJ	.	.
4BB-/	4B-/	4g/	.	4b-\	.	2g/	.	.
4BB-/	4B-/	4g/	.	4b-\	.	.	.	.
4BBn/	4Bn/	4f/	.	4a\	.	4f/	.	.
=44	=44	=44	=44	=44	=44	=44	=44	=44
4C/	4c/	4f/	.	4a/	.	4f/	.	.
4C/	4c/	4en/	.	4g/	.	2en/	-mniſ	.
4C/	4c/	4e/	.	4g/	.	.	.	.
4C/	4c/	4f/	.	4a/	.	4cc\	et	.
=45	=45	=45	=45	=45	=45	=45	=45	=45
.	.	.	.	.	.	8qqcc/	.	.
*	*	*	*	*	*	*Xtuplet	*	*
4C/	4c/	4g/	.	4b-/	.	12b-\L	can-	.
.	.	.	.	.	.	12a\	.	.
.	.	.	.	.	.	12g\J	.	.
4C/	4c/	2g/	.	2b-/	.	2g\	.	.
4C/	4c/	.	.	.	.	.	.	.
4C/	4c/	4g/	.	4b-/	.	4b-\	.	.
!LO:LB:g=original	!	!	!	!LO:LB:g=original	!	!	!	!
=46	=46	=46	=46	=46	=46	=46	=46	=46
.	.	.	.	.	.	8qqb-/	.	.
4C/	4c/	4f/	.	4a/	.	12a\L	.	.
.	.	.	.	.	.	12g\	.	.
.	.	.	.	.	.	12f\J	.	.
4C/	4c/	2f/	.	2a/	.	2f/	.	.
4C/	4c/	.	.	.	.	.	.	.
4C/	4c/	4f/	.	4a/	.	4cc\	.	.
=47	=47	=47	=47	=47	=47	=47	=47	=47
!	!	!	!	!	!	!LO:TX:a:t=P:problem=brak taktu	!	!
4C/	4c/	4f/	.	4g/	.	1ryy	.	.
4C/	4c/	2en/	.	2g/	.	.	.	.
4C/	4c/	.	.	.	.	.	.	.
4C/	4c/	4e/	.	4g/	.	.	.	.
=48	=48	=48	=48	=48	=48	=48	=48	=48
.	.	.	.	.	.	8qqb-/	.	.
4F\	4f\	4f/	.	4a/	.	12a\L	.	.
.	.	.	.	.	.	12g\	.	.
.	.	.	.	.	.	12f\J	.	.
4F\	4f\	2f/	.	2a/	.	2f/	.	.
4F\	4f\	.	.	.	.	.	.	.
4F\	4f\	4f/	.	4a/	.	4cc\	.	.
=49	=49	=49	=49	=49	=49	=49	=49	=49
.	.	.	.	.	.	8qqcc/	.	.
4F\	4f\	4g/	.	4b-/	.	12b-\L	.	.
.	.	.	.	.	.	12a\	.	.
.	.	.	.	.	.	12g\J	.	.
4F\	4f\	2g/	.	2b-/	.	2g\	.	.
4F\	4f\	.	.	.	.	.	.	.
4F\	4f\	4g/	.	4b-/	.	4dd\	.	.
=50	=50	=50	=50	=50	=50	=50	=50	=50
!LO:TX:a:t=P:problem=takt zapisany repetycją	!LO:TX:a:t=P:problem=brak taktu	!	!	!	!	!	!	!
.	.	.	.	.	.	8qqdd/	.	.
4F\yy	1ryy	4a/	.	4cc\	.	12cc\L	.	.
.	.	.	.	.	.	12b-\	.	.
.	.	.	.	.	.	12a\J	.	.
4F\yy	.	2a/	.	2cc\	.	2a\	.	.
4F\yy	.	.	.	.	.	.	.	.
4F\yy	.	4a/	.	4cc\	.	4ee-\	.	.
=51	=51	=51	=51	=51	=51	=51	=51	=51
.	.	.	.	.	.	8qqee-/	.	.
4BB-/	4f\	4b-/	.	4dd\	.	12dd\L	.	.
.	.	.	.	.	.	12cc\	.	.
.	.	.	.	.	.	12b-\J	.	.
4BB-/	4f\	2b-/	.	2dd\	.	2b-\	.	.
4BB-/	4f\	.	.	.	.	.	.	.
4BB-/	4d\	4b-/	.	4dd\	.	4ff\	.	.
!	!	!	!	!	!	!LO:LB:g=original	!	!
=52	=52	=52	=52	=52	=52	=52	=52	=52
4C/	4c\	4g/|	.	4een\|	.	12een\L	.	.
.	.	.	.	.	.	12dd\	.	.
.	.	.	.	.	.	12cc\J	.	.
4C/	4c\	4a/|	.	4ff\|	.	12ff\L	.	.
.	.	.	.	.	.	12ee\	.	.
.	.	.	.	.	.	12dd\J	.	.
4C/	4c\	4en/|	.	4gg\|	.	12gg\L	.	.
.	.	.	.	.	.	12ff\	.	.
.	.	.	.	.	.	12ee\J	.	.
4C/	4c\	4g/|	.	4b-\|	.	12dd\L	.	.
.	.	.	.	.	.	12cc\	.	.
.	.	.	.	.	.	12b-\J	.	.
=53	=53	=53	=53	=53	=53	=53	=53	=53
!	!	!	!LO:DY:t=f.	!	!	!	!	!
.	.	.	.	8qqb-/	.	8qqb-/	.	.
4F\|	4f\	4f/	f	4a/	f	2a\	.	.
4r	4r	12cc\L|	.	12cc/L|	.	.	.	.
.	.	12a\|	.	12a/|	.	.	.	.
.	.	12f\J|	.	12f/J|	.	.	.	.
!	!	!LO:LB:g=original	!	!	!	!	!	!
4AA/|	4A/	4A/	.	4A/	.	4cc\	.	.
4r	4r	12cc\L|	.	12cc/L|	.	4f/	.	.
.	.	12a\|	.	12a/|	.	.	.	.
.	.	12f\J|	.	12f/J|	.	.	.	.
=54	=54	=54	=54	=54	=54	=54	=54	=54
4BB-/|	4B-/	4B-/	.	4B-/	.	4f/	-ti-	.
4r	4r	12cc\L|	.	12cc/L|	.	4f/	-cis	.
.	.	12a\|	.	12a/|	.	.	.	.
.	.	12f\J|	.	12f/J|	.	.	.	.
4C/|	4c/	4c/	.	4c/	.	(12en/L	can-	.
.	.	.	.	.	.	12f/	.	.
.	.	.	.	.	.	12g/J)	.	.
4r	4r	4r	.	4r	.	(12g\L	.	.
.	.	.	.	.	.	12a\	.	.
.	.	.	.	.	.	12b-\J)	.	.
=55	=55	=55	=55	=55	=55	=55	=55	=55
4FF/	4F/	4r	.	4r	.	4b-\	.	.
4r	4r	12cc\L|	.	12cc/L|	.	4a\	.	.
.	.	12a\|	.	12a/|	.	.	.	.
.	.	12f\J|	.	12f/J|	.	.	.	.
4AA/	4A/	4A/	.	4A/	.	4cc\	.	.
4r	4r	12cc\L|	.	12cc/L|	.	4f/	.	.
.	.	12a\|	.	12a/|	.	.	.	.
.	.	12f\J|	.	12f/J|	.	.	.	.
=56	=56	=56	=56	=56	=56	=56	=56	=56
4BB-/	4B-/	4B-/	.	4B-/	.	4f/	.	.
4r	4r	12cc\L|	.	12cc/L|	.	4f/	.	.
.	.	12a\|	.	12a/|	.	.	.	.
.	.	12f\J|	.	12f/J|	.	.	.	.
4C/	4c/	4c/	.	4c/	.	(12en/L	-ti-	.
.	.	.	.	.	.	12f/	.	.
.	.	.	.	.	.	12g/J)	.	.
4r	4r	4r	.	4r	.	(12g\L	-cis	.
.	.	.	.	.	.	12a\	.	.
.	.	.	.	.	.	12b-\J)	.	.
!	!	!	!	!LO:LB:g=original	!	!	!	!
=57	=57	=57	=57	=57	=57	=57	=57	=57
2F\	2f\	4r	.	4r	.	4a\	in	.
!	!	!	!	!	!LO:DY:t=p	!	!	!
.	.	4ff\	p	4ff\	p	4ff\	hym-	.
2En\	2en\	4ff\	.	4ff\	.	4ff\	-niſ	.
.	.	4ff\	.	4ff\	.	4ff\	et	.
=58	=58	=58	=58	=58	=58	=58	=58	=58
4r	4r	1f	.	1f	.	[2f/	can-	.
4D/	4d\	.	.	.	.	.	.	.
4C/	4c\	.	.	.	.	8f/L]	.	.
.	.	.	.	.	.	16g/L	.	.
.	.	.	.	.	.	16a/JJ	.	.
4BB-/	4B-\	.	.	.	.	16b-\LL	.	.
.	.	.	.	.	.	16cc\	.	.
.	.	.	.	.	.	16dd\	.	.
.	.	.	.	.	.	16een\JJ	.	.
!	!LO:LB:g=original	!	!	!	!	!LO:LB:g=original	!	!
=59	=59	=59	=59	=59	=59	=59	=59	=59
!	!	!	!	!	!LO:DY:t=poco f	!LO:N:vis=4..	!	!
4AA/	4c\	4.ff\	f	4.ff\	f	4.ff\	.	.
4GG/	4B-\	.	.	.	.	.	.	.
.	.	16een\LL	.	16een\LL	.	16een\LL	.	.
.	.	16dd\JJ	.	16dd\JJ	.	16dd\JJ	.	.
4AA/	4c\	4cc\	.	4cc\	.	4cc\	.	.
4BB-/	4d\	4b-\	.	4b-\	.	4b-\	.	.
=60	=60	=60	=60	=60	=60	=60	=60	=60
2C/	2c/	2a/	.	2a/	.	2a\	.	.
2CC/	2c/	2g/	.	2g/	.	2g\	-ti-	.
=61	=61	=61	=61	=61	=61	=61	=61	=61
2F\	2a\	4f/	.	4f/	.	1f	-cis	.
.	.	2ff\	f	2ff\	f	.	.	.
2En\	2g\	.	.	.	.	.	.	.
.	.	4ff\	.	4ff\	.	.	.	.
=62	=62	=62	=62	=62	=62	=62	=62	=62
4D/|	4f'\	4ff\	.	4ff\	.	00r	.	.
4D/|	4f'\	4ffT\	.	4ffT\	.	.	.	.
4C/|	4en'\	4ffT\	.	4ffT\	.	.	.	.
4BB-/|	4d'\	4ffT\	.	4ffT\	.	.	.	.
!LO:LB:g=original	!	!	!	!	!	!	!	!
=63	=63	=63	=63	=63	=63	=63	=63	=63
4AA/	4c\	[2f/	.	[2f/	.	.	.	.
4BB-/	4d\	.	.	.	.	.	.	.
4AA/	4c\	8f/L]	.	8f/L]	.	.	.	.
.	.	16g/L	.	16g/L	.	.	.	.
.	.	16a/JJ	.	16a/JJ	.	.	.	.
4GG/	4B-\	16b-\LL	.	16b-\LL	.	.	.	.
.	.	16cc\	.	16cc\	.	.	.	.
.	.	16dd\	.	16dd\	.	.	.	.
.	.	16een\JJ	.	16een\JJ	.	.	.	.
!	!	!LO:LB:g=original	!	!	!	!	!	!
=64	=64	=64	=64	=64	=64	=64	=64	=64
4FF/	4A/	4.ff\	.	4.ff\	.	.	.	.
4GG/	4B-/	.	.	.	.	.	.	.
.	.	16een\LL	.	(16een\LL	.	.	.	.
.	.	16dd\JJ	.	16dd\JJ)	.	.	.	.
4AA/	4c\	4cc\	.	4cc\	.	.	.	.
4BB-/	4d\	4b-\	.	4b-\	.	.	.	.
=65	=65	=65	=65	=65	=65	=65	=65	=65
4r	4r	4.d/	.	4.d/	.	.	.	.
4BB-/	4B-/	.	.	.	.	.	.	.
.	.	8g/	.	8g/	.	.	.	.
.	.	8qqf/	.	8qqf/	.	.	.	.
4C/	4A/	2en/	.	2en/	.	.	.	.
4CC/	4G/	.	.	.	.	.	.	.
=66	=66	=66	=66	=66	=66	=66	=66	=66
2FF/	4A/	4f/	.	4f/	.	1r	.	.
.	4c\	4c/	.	4c/	.	.	.	.
2r	4f\	4f/	.	4f/	.	.	.	.
.	4r	4r	.	4r	.	.	.	.
=67	=67	=67	=67	=67	=67	=67	=67	=67
4r	4r	4r	.	2f/	p	2f/	Quan-	.
4F\	4c\	4A/	p	.	.	.	.	.
4En\	4c\	4G/	.	2g/	.	2g/	-tum	.
4C\	4c\	4en/	.	.	.	.	.	.
=68	=68	=68	=68	=68	=68	=68	=68	=68
4F\	4f\	4f/	.	4a/	.	4a\	po-	.
4G\	4g\	8.d/L	.	2.b-/	.	2.b-\	-tes	.
.	.	16en/Jk	.	.	.	.	.	.
4D\	4d\	4f/	.	.	.	.	.	.
!	!LO:SIC:v:s=4en	!	!	!	!	!	!	!
4En\	4e-\	4g/	.	.	.	.	.	.
=69	=69	=69	=69	=69	=69	=69	=69	=69
4F\	4f\	4c/	.	4a/	.	16a\LL	tan-	.
.	.	.	.	.	.	16g\JJ	.	.
.	.	.	.	.	.	4.f/	.	.
4D\	4d\	4f/	.	4a/	.	.	.	.
!	!	!	!	!LO:LB:g=original	!	!	!	!
4BB-/	4B-\	4f/	.	4g/	.	4g/	.	.
4C/	4c\	4en/	.	4g/	.	4en/	-tum	.
=70	=70	=70	=70	=70	=70	=70	=70	=70
4F\	4f\	4f/	.	4f/	.	4f/	au-	.
4F\	4f\	2.b-\	.	2.dd\	.	2.dd\	-de	.
4F\	4f\	.	.	.	.	.	.	.
4F\	4f\	.	.	.	.	.	.	.
=71	=71	=71	=71	=71	=71	=71	=71	=71
4r	4r	2a/	.	4cc\	.	16cc\LL	qui-	.
.	.	.	.	.	.	16b-\JJ	.	.
.	.	.	.	.	.	4.a\	-a	.
4F\	4f\	.	.	4cc\	.	.	.	.
4D\	4d\	4f/	.	4b-\	.	4b-\	ma-	.
!	!LO:SIC:v:s=4en	!	!	!	!	!	!	!
4En\	4e-\	4g/	.	4b-\	.	4g\	-jor	.
=72	=72	=72	=72	=72	=72	=72	=72	=72
4F\	4f\	4f/	.	4a/	.	4a\	ma-	.
4F\	4f\	2.dd\	.	2.ff\	.	2.ff\	-jor	.
4F\	4f\	.	.	.	.	.	.	.
4F\	4f\	.	.	.	.	.	.	.
!	!	!	!	!	!	!LO:LB:g=original	!	!
=73	=73	=73	=73	=73	=73	=73	=73	=73
4r	4r	2cc\	.	2ee-\	.	16ee-\LL	o-	.
.	.	.	.	.	.	16dd\JJ	.	.
.	.	.	.	.	.	4.cc\	.	.
4F\	4f\	.	.	.	.	.	.	.
4B-\	4f\	4b-\	.	4dd\	.	4dd\	.	.
4En\	4en\	4b-\	.	4dd\	.	4dd\	-mni	.
!	!LO:LB:g=original	!LO:LB:g=original	!	!	!	!	!	!
=74	=74	=74	=74	=74	=74	=74	=74	=74
4F\	4f\	4b-\	.	4dd\	.	4dd\	lau-	.
4F\	4f\	2.a/	.	2.cc\	.	2.cc\	-de	.
4F\	4f\	.	.	.	.	.	.	.
4E-X\	4e-X\	.	.	.	.	.	.	.
=75	=75	=75	=75	=75	=75	=75	=75	=75
4D/	4d\	4f/	f	4ff\	f	16ff\LL	nec-	.
.	.	.	.	.	.	16ee-\	.	.
.	.	.	.	.	.	16dd\	.	.
.	.	.	.	.	.	16cc\JJ	.	.
!	!	!	!	!	!LO:DY:t=p	!	!	!
4D/	4d\	4f/	p	2bn\	p	2bn\	.	.
4D/	4d\	4f/	.	.	.	.	.	.
4C/	4c\	4e-X/	.	4cc\	.	4cc\	-lau-	.
=76	=76	=76	=76	=76	=76	=76	=76	=76
4BBn/	4Bn/	4d/	.	4dd\	.	16dd\LL	-da-	.
.	.	.	.	.	.	16cc\	.	.
.	.	.	.	.	.	16bn\	.	.
.	.	.	.	.	.	16a\JJ	.	.
4BB/	4B/	4d/	.	4g/	.	2g\	.	.
4BB/	4B/	4d/	.	4g/	.	.	.	.
4BB/	4B/	4d/	.	4a-X/	.	4a-X\	.	.
=77	=77	=77	=77	=77	=77	=77	=77	=77
!LO:SIC:v:s=4BBn	!LO:SIC:v:s=4Bn	!	!	!	!	!	!	!
4BB-/	4B-/	4d/	.	[1g	.	2.g/	.	.
!LO:SIC:v:s=4BB	!LO:SIC:v:s=4B	!	!	!	!	!	!	!
4BB-/	4B-/	4d/	.	.	.	.	.	.
!LO:SIC:v:s=4BB	!LO:SIC:v:s=4B	!	!	!	!	!	!	!
4BB-/	4B-/	4d/	.	.	.	.	.	.
!LO:SIC:v:s=4BB	!LO:SIC:v:s=4B	!	!	!	!	!	!	!
4BB-/	4B-/	4d/	.	.	.	4f/	-re	.
=78	=78	=78	=78	=78	=78	=78	=78	=78
!	!	!	!	!	!	!LO:SIC:v:s=16en	!	!
4C/	4c/	4e-/	.	4g/]	.	16e-/KL	suf-	.
.	.	.	.	.	.	8.d/J	-fi-	.
4C/	4G/	4c/	.	4e-/	.	2c/	-ciſ	.
4C/	4c\	4e-/	.	4g/	.	.	.	.
4C/	4e-\	4g/	.	4cc\	.	4r	.	.
=79	=79	=79	=79	=79	=79	=79	=79	=79
!	!	!	!	!	!LO:DY:t=f	!	!	!
4C/	4c\	4cc\	f	4ee-\	f	16ee-\LL	Lau-	.
.	.	.	.	.	.	16dd\	.	.
.	.	.	.	.	.	16cc\	.	.
.	.	.	.	.	.	16b-\JJ	.	.
!	!	!	!	!	!LO:DY:t=p	!	!	!
4C/	4c\	4e-/	p	4a/	p	2a\	-da-	.
4C/	4c\	4e-/	.	4a/	.	.	.	.
4BB-/	4B-\	4d/	.	4b-/	.	4b-\	.	.
!LO:LB:g=original	!	!	!	!	!	!	!	!
=80	=80	=80	=80	=80	=80	=80	=80	=80
!	!	!	!LO:DY:t=for	!	!LO:DY:t=f	!	!	!
4AA/	4A\	4c/	f	4cc\	f	16cc\LL	.	.
.	.	.	.	.	.	16b-\	.	.
.	.	.	.	.	.	16a\	.	.
.	.	.	.	.	.	16g\JJ	.	.
!	!	!	!	!	!LO:DY:t=p	!	!	!
4AA/	4A\	4f/	p	4cc\	p	2f/	-re	.
4AA/	4A\	4f/	.	4cc\	.	.	.	.
4AA/	4A\	4f/	.	4cc\	.	4cc\	lau-	.
!	!	!	!	!	!	!LO:LB:g=original	!	!
=81	=81	=81	=81	=81	=81	=81	=81	=81
4BB-/	4B-/	4f/	.	4dd\	.	4.dd\	-da-	.
4BB-/	4f\	4dd\	.	4ff\	.	.	.	.
.	.	.	.	.	.	(16cc\LL	.	.
.	.	.	.	.	.	16dd\JJ)	.	.
4E-\	4g\	4cc\	.	4ee-\	.	4ee-\	.	.
4En\	4g\	4b-\	.	4dd\	.	4dd\	.	.
!	!	!	!	!LO:LB:g=original	!	!	!	!
=82	=82	=82	=82	=82	=82	=82	=82	=82
4F\	4f\	4b-\	.	4dd\	.	4dd\	.	.
4F\	4f\	4a\	.	4cc\	.	2cc\	-re	.
4F\	4f\	4a\	.	4cc\	.	.	.	.
4F\	4f\	4dd\	.	4ff\	.	4ff\	lau-	.
=83	=83	=83	=83	=83	=83	=83	=83	=83
.	.	.	.	.	.	8qqff/	.	.
4F\	4f\	4cc\	.	4ee-\	.	(12ee-\L	-da-	.
.	.	.	.	.	.	12dd\	.	.
.	.	.	.	.	.	12cc\J)	.	.
4F\	4f\	2cc\	.	2ee-\	.	2cc\	.	.
4F\	4f\	.	.	.	.	.	.	.
4F\	4f\	4cc\	.	4ee-\	.	4ee-\	.	.
=84	=84	=84	=84	=84	=84	=84	=84	=84
!LO:TX:a:t=P:problem=takt zapisany repetycją	!	!	!	!	!	!	!	!
.	.	.	.	.	.	8qqee-/	.	.
4F\yy	4f\	4b-\	.	4dd\	.	(12dd\L	.	.
.	.	.	.	.	.	12cc\	.	.
.	.	.	.	.	.	12b-\J)	.	.
4F\yy	4f\	2b-\	.	2dd\	.	2b-\	.	.
4F\yy	4f\	.	.	.	.	.	.	.
4F\yy	4f\	4b-\	.	4dd\	.	4ff\	.	.
=85	=85	=85	=85	=85	=85	=85	=85	=85
!	!LO:TX:a:t=P:problem=brak taktu	!	!	!	!	!	!	!
.	.	.	.	.	.	8qqff/	.	.
4F\	1ryy	4a/	.	4cc\	.	(12ee-\L	.	.
.	.	.	.	.	.	12dd\	.	.
.	.	.	.	.	.	12cc\J)	.	.
4F\	.	2a/	.	2cc\	.	2cc\	.	.
4F\	.	.	.	.	.	.	.	.
4F\	.	4a/	.	4cc\	.	4ee-\	.	.
=86	=86	=86	=86	=86	=86	=86	=86	=86
4BB-/	4f\	4b-\	.	4dd\	.	(12dd\L	.	.
.	.	.	.	.	.	12cc\	.	.
.	.	.	.	.	.	12b-\J)	.	.
4BB-/	4f\	2.b-\	.	2dd\	.	2.b-\	-re	.
4BB-/	4f\	.	.	.	.	.	.	.
4C/	4e-\	.	.	4ee-\	.	.	.	.
!	!	!LO:PB:g=original	!	!	!	!	!	!
=87	=87	=87	=87	=87	=87	=87	=87	=87
4D\	4d\	4b-\	.	4ff\	.	16ff\LL	nec-	.
.	.	.	.	.	.	16ee-\	.	.
.	.	.	.	.	.	16dd\	.	.
.	.	.	.	.	.	16cc\JJ	.	.
4D\	4d\	4b-\	.	4ff\	.	2b-\	-lau-	.
4D\	4d\	4b-\	.	4ff\	.	.	.	.
4D\	4d\	4b-\	.	4ff\	.	4a-X\	.	.
!	!	!	!	!	!	!LO:LB:g=original	!	!
=88	=88	=88	=88	=88	=88	=88	=88	=88
4E-\	4e-\	4b-\	.	4gg\	.	4g\	.	.
4E-\	4e-\	(2bn\	.	2bn\	.	2bn\	-da-	.
4E-\	4e-\	.	.	.	.	.	.	.
4E-\	4e-\	4cc\)	.	4cc\	.	4cc\	-re	.
=89	=89	=89	=89	=89	=89	=89	=89	=89
4En\	4en\	4cc\	.	4gg\	.	(16gg\LL	lau-	.
.	.	.	.	.	.	16ff\	.	.
.	.	.	.	.	.	16een\	.	.
.	.	.	.	.	.	16dd\JJ)	.	.
4E\	4e\	4cc\	.	4gg\	.	2cc\	.	.
4E\	4e\	4cc\	.	4gg\	.	.	.	.
4E\	4e\	4cc\	.	4gg\	.	4b-X\	.	.
!	!LO:LB:g=original	!	!	!	!	!	!	!
=90	=90	=90	=90	=90	=90	=90	=90	=90
4F\	4f\	4cc\	.	4aa\	.	(8a\	.	.
.	.	.	.	.	.	4.f/)	-da-	.
4F\	4f\	4cc\	.	4aa\	.	.	.	.
4F\	4f\	4dd\	.	4bb-X\	.	8b-\	.	.
.	.	.	.	.	.	4.f/	.	.
4F\	4f\	4dd\	.	4bb-\	.	.	.	.
=91	=91	=91	=91	=91	=91	=91	=91	=91
4F\	4f\	4a/	.	4cc\	.	8cc\	.	.
.	.	.	.	.	.	4.f/	.	.
4F\	4f\	4a/	.	4cc\	.	.	.	.
4F\	4f\	4b-\	.	4dd\	.	8dd\	.	.
.	.	.	.	.	.	4.f/	.	.
4F\	4f\	4dd\	.	4ff\	.	.	.	.
=92	=92	=92	=92	=92	=92	=92	=92	=92
!LO:TX:a:t=P:problem=takt zapisany repetycją	!	!	!	!	!	!	!	!
4F\yy	4f\	4cc\	.	4ee-\	.	(16ee-\KL	.	.
.	.	.	.	.	.	8.cc\J)	.	.
4F\yy	4f\	4b-\	.	4dd\	.	(16dd\KL	.	.
.	.	.	.	.	.	8.b-\J)	.	.
4F\yy	4f\	4a\	.	4cc\	.	(16cc\KL	.	.
.	.	.	.	.	.	8.a\J)	.	.
4F\yy	4f\	4g\	.	4b-\	.	(16b-\KL	.	.
.	.	.	.	.	.	8.g\J)	.	.
=93	=93	=93	=93	=93	=93	=93	=93	=93
4F\	4f\	4f/	.	4a`>/	.	4f/	.	.
4E-\	4e-\	4a/	.	4gg`\	.	4gg\	.	.
4D\	4d\	4b-/	.	4ff`\	.	(16ff\KL	.	.
.	.	.	.	.	.	8.ee-\J)	.	.
4E-\	4e-\	4cc\	.	4ee-`\	.	(16dd\KL	.	.
.	.	.	.	.	.	8.cc\J)	.	.
=94	=94	=94	=94	=94	=94	=94	=94	=94
4F\	4f\	4b-\	.	4dd\	.	2b-\	-re	.
4F\	4f\	4b-\	.	4dd\	.	.	.	.
4F\	4f\	4b-\	.	4cc\	.	4.cc\	suf-	.
4F\	4f\	4a\	.	4cc\	.	.	.	.
.	.	.	.	.	.	8b-\	-fi-	.
!	!	!	!	!	!	!LO:PB:g=original	!	!
=95	=95	=95	=95	=95	=95	=95	=95	=95
!	!	!	!LO:DY:t=for	!	!	!	!	!
8G\L	8g\L	1b-	f	1b-	.	2b-\	-cis	.
8B-\	(8b-\	.	.	.	.	.	.	.
8d\	8dd\)	.	.	.	.	.	.	.
8c\J	8cc\J	.	.	.	.	.	.	.
8B-\L	8b-\L	.	.	.	.	2r	.	.
8A\	(8a\	.	.	.	.	.	.	.
8G\	8g\)	.	.	.	.	.	.	.
8F\J	8f\J	.	.	.	.	.	.	.
!	!	!	!	!LO:PB:g=original	!	!	!	!
=96	=96	=96	=96	=96	=96	=96	=96	=96
!	!	!	!LO:DY:t=p	!	!	!	!	!
1En	8en\L	8r	p	8r	.	[4cc\	Lau-	.
.	(8g'\	(8b-'\L	.	(8cc'\L	.	.	.	.
.	8g'\	8b-'\	.	8cc'\	.	2cc\]	.	.
.	8g'\J)	8b-'\J)	.	8cc'\J)	.	.	.	.
.	(8g'\L	(8b-'\L	.	(8cc'\L	.	.	.	.
.	8g'\	8b-'\	.	8cc'\	.	.	.	.
.	8g'\)	8b-'\	.	8cc'\	.	4cc\	-dis	.
.	8g'\J	8b-'\J)	.	8cc'\J)	.	.	.	.
=97	=97	=97	=97	=97	=97	=97	=97	=97
1F	8r	8r	.	8r	.	(16cc\KL	the-	.
.	.	.	.	.	.	8.a\J)	.	.
!	!	!LO:TX:a:t=P:problem=wysokość niejednoznacza, adnotacja "a" przy każdym dźwieku	!	!	!	!	!	!
.	(8f'\L	(8a'\L	.	(8cc'\L	.	.	.	.
.	8f'\	8a'\	.	8cc'\	.	2.f/	-ma	.
.	8f'\J)	8a'\J)	.	8cc'\J)	.	.	.	.
.	(8f'\L	(8a'\L	.	(8cc'\L	.	.	.	.
.	8f'\	8a'\	.	8cc'\	.	.	.	.
.	8f'\	8a'\	.	8cc'\	.	.	.	.
.	8f'\J)	8a'\J)	.	8cc'\J)	.	.	.	.
!	!	!LO:LB:g=original	!	!	!	!	!	!
=98	=98	=98	=98	=98	=98	=98	=98	=98
!	!	!	!	!LO:TX:a:t=P:problem=takt zapisany repetycją	!	!	!	!
1En	8r	8r	.	8ryy	.	4cc\	spe-	.
.	(8g'\L	(8b-'\L	.	(8cc'\Lyy	.	.	.	.
.	8g'\	8b-'\	.	8cc'\yy	.	2cc\	.	.
.	8g'\J)	8b-'\J)	.	8cc'\J)yy	.	.	.	.
.	(8g'\L	(8b-'\L	.	(8cc'\Lyy	.	.	.	.
.	8g'\	8b-'\	.	8cc'\yy	.	.	.	.
.	8g'\	8b-'\	.	8cc'\yy	.	4cc\	-ci-	.
.	8g'\J)	8b-'\J)	.	8cc'\J)yy	.	.	.	.
=99	=99	=99	=99	=99	=99	=99	=99	=99
1F	8r	8r	.	8r	.	(16cc\KL	-a-	.
.	.	.	.	.	.	8.a\J)	.	.
.	(8f'\L	(8a'/L	.	(8cc'\L	.	.	.	.
.	8f'\	8a'/	.	8cc'\	.	2f/	-lis	.
.	8f'\J)	8a'/J)	.	8cc'\J)	.	.	.	.
.	(8f'\L	(8a'/L	.	(8cc'\L	.	.	.	.
.	8f'\	8a'/	.	8cc'\	.	.	.	.
.	8f'\	8a'/	.	8cc'\	.	4ryy	.	.
.	8f'\J)	8a'/J)	.	8cc'\J)	.	.	.	.
=100	=100	=100	=100	=100	=100	=100	=100	=100
4En\	1g	1b-T	.	1ccT	.	16gg\LL	Pa-	.
.	.	.	.	.	.	16ff\	.	.
.	.	.	.	.	.	16een\	.	.
.	.	.	.	.	.	16dd\JJ	.	.
4E\	.	.	.	.	.	2cc\	.	.
4E\	.	.	.	.	.	.	.	.
4E\	.	.	.	.	.	4b-\	-nis	.
=101	=101	=101	=101	=101	=101	=101	=101	=101
!	!	!	!	!LO:TX:a:t=P:problem=takt zapisany repetycją	!	!	!	!
1F	1f	1at	.	1ccTyy	.	4.a\	vi-	.
.	.	.	.	.	.	8b-\	.	.
.	.	.	.	.	.	2cc\	-vus	.
!LO:LB:g=original	!	!	!	!	!	!	!	!
=102	=102	=102	=102	=102	=102	=102	=102	=102
!	!	!	!	!	!LO:DY:t=f	!	!	!
4BB-/	4B-/	4r	.	4r	f	2r	.	.
4r	4r	12ff\L|	.	12ff\L|	.	.	.	.
.	.	12dd\|	.	12dd\|	.	.	.	.
.	.	12b-\J|	.	12b-\J|	.	.	.	.
!	!	!	!	!	!LO:DY:t=fte&colon;	!	!	!
4D/	4d\	4d/	.	4d/	f	4ff\	et	.
4r	4r	12ff\L|	.	12ff\L|	.	4b-\	vi-	.
.	.	12dd\|	.	12dd\|	.	.	.	.
.	.	12b-\J|	.	12b-\J|	.	.	.	.
!	!LO:LB:g=original	!	!	!	!	!	!	!
=103	=103	=103	=103	=103	=103	=103	=103	=103
4E-\	4e-\	4e-/	.	4e-/	.	4b-\	.	.
4r	4r	12ff\L|	.	12ff\L|	.	(16a\KL	-ta-	.
.	.	.	.	.	.	8.g\J)	.	.
.	.	12dd\|	.	12dd\|	.	.	.	.
.	.	12b-\J|	.	12b-\J|	.	.	.	.
4F\	4f\	4f/	.	4f/	.	4f/	.	.
4r	4r	4r	.	4r	.	4e-/	-lis	.
!	!	!	!	!	!	!LO:LB:g=original	!	!
=104	=104	=104	=104	=104	=104	=104	=104	=104
4BB-/	4B-/	4r	.	4r	.	4e-/	ho-	.
4r	4r	12ff\L|	.	12ff\L|	.	4d/	-di-	.
.	.	12dd\|	.	12dd\|	.	.	.	.
.	.	12b-\J|	.	12b-\J|	.	.	.	.
4D/	4d\	4d/	.	4d/	.	4ff\	-e	.
4r	4r	12ff\L|	.	12ff\L|	.	[4b-\	pro-	.
.	.	12dd\|	.	12dd\|	.	.	.	.
.	.	12b-\J|	.	12b-\J|	.	.	.	.
=105	=105	=105	=105	=105	=105	=105	=105	=105
4E-\	4e-\	4e-/	.	4e-/	.	4b-\]	.	.
4r	4r	12ff\L|	.	12ff\L|	.	4b-\	-po-	.
.	.	12dd\|	.	12dd\|	.	.	.	.
.	.	12b-\J|	.	12b-\J|	.	.	.	.
4F\	4f\	4f/	.	4f/	.	(12a\L	.	.
.	.	.	.	.	.	12b-\	.	.
.	.	.	.	.	.	12cc\J)	.	.
4r	4r	4r	.	4r	.	12cc\L	.	.
.	.	.	.	.	.	12dd\	.	.
.	.	.	.	.	.	12ee-\J	.	.
!	!	!	!	!LO:LB:g=original	!	!	!	!
=106	=106	=106	=106	=106	=106	=106	=106	=106
2B-\	2b-\	4r	.	4r	.	4dd\	-po-	.
.	.	4bb-\	p	4bb-\	p	4b-\	-ni-	.
2A\	2a\	4bb-\	.	4bb-\	.	4b-\	-tur	.
.	.	4bb-\	.	4bb-\	.	4b-\	pro-	.
!	!	!LO:LB:g=original	!	!	!	!	!	!
=107	=107	=107	=107	=107	=107	=107	=107	=107
4r	4r	1b-	.	1b-	.	2B-/	-po-	.
4G\	4g\	.	.	.	.	.	.	.
4F\	4f\	.	.	.	.	8B-/L	.	.
.	.	.	.	.	.	16c/L	.	.
.	.	.	.	.	.	16d/JJ	.	.
4E-\	4e-\	.	.	.	.	16e-/LL	.	.
.	.	.	.	.	.	16f/	.	.
.	.	.	.	.	.	16g/	.	.
.	.	.	.	.	.	16a/JJ	.	.
=108	=108	=108	=108	=108	=108	=108	=108	=108
!	!	!	!LO:DY:t=f	!	!	!	!	!
4D/	4f\	4.bb-\	f	4.bb-\	f	4b-\	.	.
4C/	4e-\	.	.	.	.	16b-\LL	.	.
.	.	.	.	.	.	16cc\	.	.
.	.	(16aa\LL	.	(16aa\LL	.	16dd\	.	.
.	.	16gg\JJ)	.	16gg\JJ)	.	16ee-\JJ	.	.
4D/	4d\	4ff\	.	4ff\	.	4ff\	.	.
4E-/	4e-\	4ee-\	.	4ee-\	.	4gg\	.	.
=109	=109	=109	=109	=109	=109	=109	=109	=109
4r	4r	2g/	.	2g/	p	4.g\	.	.
4E-\	4e-\	.	.	.	.	.	.	.
.	.	.	.	.	.	8cc\	.	.
.	.	8qqb-/	.	8qqb-/	.	8qqb-/	.	.
4F\	4d\	2a/	.	2a/	.	2a\	-ni-	.
4FF/	4c\	.	.	.	.	.	.	.
=110	=110	=110	=110	=110	=110	=110	=110	=110
!	!	!	!	!LO:TX:a:t=P:problem=mixed beam	!	!	!	!
4G'\	4g\	16b-\KL	.	(>16b-/KL	f	2b-\	-tur	.
.	.	8.bb-\J	.	8.bb-\J)	.	.	.	.
4E-'\	4e-\	(16gg\KL	.	(16gg\KL	.	.	.	.
.	.	8.ee-\J)	.	8.ee-\J)	.	.	.	.
4D'\	4d\	(16ff\KL	.	(16ff\KL	.	4r	.	.
.	.	8.b-\J)	.	8.b-\J)	.	.	.	.
4E-'\	4e-\	(16ee-\KL	.	(16ee-\KL	.	4ee-\	pro-	.
.	.	8.cc\J)	.	8.cc\J)	.	.	.	.
!	!	!	!	!	!	!LO:LB:g=original	!	!
=111	=111	=111	=111	=111	=111	=111	=111	=111
1F;	1f;	2b-;</	.	2dd;\	.	16dd\LL	-po-	.
.	.	.	.	.	.	16cc\JJ	.	.
.	.	.	.	.	.	4.b-\	.	.
.	.	2a/	.	2cc\	.	4.cc\	.	.
.	.	.	.	.	.	8b-\	-ni-	.
=112	=112	=112	=112	=112	=112	=112	=112	=112
!	!	!	!LO:DY:t=for	!	!LO:DY:t=for	!	!	!
2B-\	2b-\	4b-/	f	4b-/	f	2b-\	-tur	.
.	.	2bb-\	.	2bb-\	.	.	.	.
2A\	2a\	.	.	.	.	2r	.	.
.	.	4bb-\	.	4bb-\	.	.	.	.
=113	=113	=113	=113	=113	=113	=113	=113	=113
4G\	4g\	4bb-\	.	4bb-\	.	00r	.	.
4G\	4b-\	4bb-T\	.	4bb-T\	.	.	.	.
4F\	4a\	4bb-T\	.	4bb-T\	.	.	.	.
4E-\	4g\	4bb-T\	.	4bb-T\	.	.	.	.
=114	=114	=114	=114	=114	=114	=114	=114	=114
4D\	4f\	[2b-\	.	[2b-\	.	.	.	.
4E-\	4g\	.	.	.	.	.	.	.
4D\	4f\	8b-\L]	.	8b-\L]	.	.	.	.
.	.	16cc\L	.	16cc\L	.	.	.	.
.	.	16dd\JJ	.	16dd\JJ	.	.	.	.
4C\	4e-\	16ee-\LL	.	16ee-\LL	.	.	.	.
.	.	16ff\	.	16ff\	.	.	.	.
.	.	16gg\	.	16gg\	.	.	.	.
.	.	16aa\JJ	.	16aa\JJ	.	.	.	.
=115	=115	=115	=115	=115	=115	=115	=115	=115
4BB-/	4d\	4.bb-\	.	4.bb-\	.	.	.	.
4C/	4e-\	.	.	.	.	.	.	.
.	.	(16aa\LL	.	16aa\LL	.	.	.	.
.	.	16gg\JJ)	.	16gg\JJ	.	.	.	.
4D\	4f\	4ff\	.	4ff\	.	.	.	.
4E-\	4g\	4ee-\	.	4ee-\	.	.	.	.
!	!	!	!	!LO:LB:g=original	!	!	!	!
=116	=116	=116	=116	=116	=116	=116	=116	=116
4r	4r	4.g/	.	4.g/	.	.	.	.
4E-\	4e-\	.	.	.	.	.	.	.
.	.	8cc\	.	8cc\	.	.	.	.
!	!	!LO:LB:g=original	!	!	!	!	!	!
.	.	8qqb-/	.	8qqb-/	.	.	.	.
4F\	4d\	2a/	.	2a/	.	.	.	.
4FF/	4c\	.	.	.	.	.	.	.
!LO:LB:g=original	!	!	!	!	!	!	!	!
=117	=117	=117	=117	=117	=117	=117	=117	=117
4BB-/	4d'\	4b-\	.	4b-\	.	00r	.	.
4r	4r	12ff\L|	.	12ff\L|	.	.	.	.
.	.	12dd\|	.	12dd\|	.	.	.	.
.	.	12b-\J|	.	12b-\J|	.	.	.	.
4D/	4d'\	4d/	.	4d/	.	.	.	.
4r	4r	12ff\L|	.	12ff\L|	.	.	.	.
.	.	12dd\|	.	12dd\|	.	.	.	.
.	.	12b-\J|	.	12b-\J|	.	.	.	.
=118	=118	=118	=118	=118	=118	=118	=118	=118
4E-\	4e-'\	4e-/	.	4e-/	.	.	.	.
4r	4r	12ff\L|	.	12ff\L|	.	.	.	.
.	.	12dd\|	.	12dd\|	.	.	.	.
.	.	12b-\J|	.	12b-\J|	.	.	.	.
4F\	4f'\	4f/	.	4f/	.	.	.	.
4r	4r	16f/LL	.	16f/LL	.	.	.	.
.	.	16e-/	.	16e-/	.	.	.	.
.	.	16d/	.	16d/	.	.	.	.
.	.	16c/JJ	.	16c/JJ	.	.	.	.
!	!LO:PB:g=original	!	!	!	!	!	!	!
=119	=119	=119	=119	=119	=119	=119	=119	=119
4BB-/	4B-/	4B-/	.	4B-/	.	.	.	.
4r	4r	12ff\L|	p	12ff\L|	p	.	.	.
.	.	12dd\|	.	12dd\|	.	.	.	.
.	.	12b-\J|	.	12b-\J|	.	.	.	.
4D/	4d\	4d/	.	4d/	.	.	.	.
4r	4r	12ff\L|	.	12ff\L|	.	.	.	.
.	.	12dd\|	.	12dd\|	.	.	.	.
.	.	12b-\J|	.	12b-\J|	.	.	.	.
=120	=120	=120	=120	=120	=120	=120	=120	=120
4E-\	4e-\	4e-/	.	4e-/	.	.	.	.
4r	4r	12ff\L|	.	12ff\L|	.	.	.	.
.	.	12dd\|	.	12dd\|	.	.	.	.
.	.	12b-\J|	.	12b-\J|	.	.	.	.
4F\	4f\	4f/	.	[4f/	.	.	.	.
4r	4r	16f/LL	f	16f/LL]	.	.	.	.
.	.	16e-/	.	16e-/	.	.	.	.
.	.	16d/	.	16d/	.	.	.	.
.	.	16c/JJ	.	16c/JJ	.	.	.	.
=121	=121	=121	=121	=121	=121	=121	=121	=121
4BB-/	4B-/	4B-/	.	4B-/	.	1r	.	.
4r	4r	4bb-\	.	4bb-\	.	.	.	.
2r	2r;	4B-/	.	4B-/	.	.	.	.
!	!	!LO:TX:a:t=P:problem=pojedyncza kreska taktowa	!	!	!	!LO:TX:a:t=P:problem=pojedyncza kreska taktowa	!	!
.	.	4r;	.	4r;	.	.	.	.
=122||;	=122||	=122||	=122||	=122||	=122||	=122||	=122||	=122||
4r	4r	4r	p	2g/	p	2g\	Bo-	.
4G\	4g\	4B-/	.	.	.	.	.	.
4F#X\	4f#X\	4A/	.	2a/	.	2a\	-ne	.
4D\	4d\	4f#X/	.	.	.	.	.	.
=123	=123	=123	=123	=123	=123	=123	=123	=123
4G\	4g\	2g/	.	4b-\	.	4b-\	Pa-	.
4A\	2a\	.	.	2.cc\	.	4cc\	-stor	.
4D\	.	4f#X/	.	.	.	4r	.	.
4F#X\	4f#X\	4a/	.	.	.	4a\	pa-	.
=124	=124	=124	=124	=124	=124	=124	=124	=124
!	!	!	!	!	!	!LO:TUP:a:problem=klamra łukowa, kropka zamiast numeru	!	!
4G\	4g\	4d/	.	4b-\	.	12b-\L	.	.
.	.	.	.	.	.	12a\	.	.
.	.	.	.	.	.	12g\J	.	.
4E-\	4e-X\	4g/	.	4b-\	.	4g\	-nis	.
4C/	4c\	4g/	.	4a/	.	4r	.	.
4D/	4d\	4f#X/	.	4a/	.	4f#X/	ve-	.
!	!	!LO:LB:g=original	!	!	!	!	!	!
=125	=125	=125	=125	=125	=125	=125	=125	=125
4r	4r	4g/	.	4g/	.	4g\	.	.
4G\	4g\	2d/	.	2d/	.	2d/	-re	.
4B-\	4G/	.	.	.	.	.	.	.
4G\	4g\	4r	.	4r	.	4r	.	.
!	!	!	!	!LO:LB:g=original	!	!	!	!
=126	=126	=126	=126	=126	=126	=126	=126	=126
4r	1d	1a-X	.	1bn	.	4bn\	Tu	.
4F\	.	.	.	.	.	2.b\	nos	.
4A-X\	.	.	.	.	.	.	.	.
4F\	.	.	.	.	.	.	.	.
!	!	!	!	!	!	!LO:LB:g=original	!	!
=127	=127	=127	=127	=127	=127	=127	=127	=127
!	!	!	!	!	!LO:DY:t=p	!	!	!
4r	1en	1g	p	1cc	p	8cc\L	pa-	.
!	!	!	!	!	!	!LO:SIC:v:s=8bn	!	!
.	.	.	.	.	.	8b-\J	.	.
!LO:SIC:v:s=4En	!	!	!	!	!	!	!	!
4E-\	.	.	.	.	.	2.cc\	-sce	.
4G\	.	.	.	.	.	.	.	.
!LO:SIC:v:s=4E	!	!	!	!	!	!	!	!
4E-\	.	.	.	.	.	.	.	.
=128	=128	=128	=128	=128	=128	=128	=128	=128
!LO:TX:a:t=P:problem=takt zapisany repetycją, repetycja niedokładna (es zamiast e)	!	!	!	!	!LO:DY:t=f	!	!	!
4ryy	2.e-X\	1g	f	1cc#X	f	4cc#X\	nos	.
4E-\yy	.	.	.	.	.	2.cc#\	tu-	.
4G\yy	.	.	.	.	.	.	.	.
4E-\yy	4g\	.	.	.	.	.	.	.
=129	=129	=129	=129	=129	=129	=129	=129	=129
4r	1f#X	1a	p	1dd	p	4dd\	-e-	.
4D\	.	.	.	.	.	2d/	-re	.
4d\	.	.	.	.	.	.	.	.
!LO:TX:b:t=Verte	!	!	!	!	!	!	!	!
4D\	.	.	.	.	.	4r	.	.
!LO:PB:g=original	!	!	!	!	!	!	!	!
=130	=130	=130	=130	=130	=130	=130	=130	=130
!	!	!	!	!	!LO:DY:t=f	!	!	!
4D\	2g'\	2g/	f	2ee-X\	f	2ee-X\	Tu	.
4d\	.	.	.	.	.	.	.	.
4c\	2g'\	2g/	.	2ee-\	.	2ee-\	nos	.
4B-\	.	.	.	.	.	.	.	.
=131	=131	=131	=131	=131	=131	=131	=131	=131
4A\	4f#X\	4cc\	.	4ee-\	.	16ee-\KL	bo-	.
!	!	!	!	!	!	!LO:N:vis=8	!	!
.	.	.	.	.	.	8.dd\J	.	.
4A\	2f#\	2cc\	.	2ee-\	.	2cc\	.	.
4A\	.	.	.	.	.	.	.	.
4G\	4g\	4cc\	.	4ee-\	.	4dd\	-na	.
=132	=132	=132	=132	=132	=132	=132	=132	=132
4F#X\	4a\	4cc\	.	4ee-\	.	4ee-\	fac	.
4F#\	4a\	4a/	.	4dd\	.	2dd\	vi-	.
4F#\	4d\	4a/	.	4dd\	.	.	.	.
4F#\	4d\	4a/	.	4cc\	.	4cc\	.	.
=133	=133	=133	=133	=133	=133	=133	=133	=133
4G\	4d\	4g/	.	4b-\	.	4b-\	-de-	.
4D/	4d\	2f#X/	.	2.a/	.	2.a\	-re	.
4D/	4d\	.	.	.	.	.	.	.
4C/	4c\	4r	.	.	.	.	.	.
=134	=134	=134	=134	=134	=134	=134	=134	=134
4BB-/	4B-/	4r	.	4r	.	2r	.	.
4r	4r	12dd\L|	.	12dd\L|	.	.	.	.
.	.	12b-\|	.	12b-\|	.	.	.	.
.	.	12g\J|	.	12g\J|	.	.	.	.
4BB-/	4B-/	4B-/	.	4B-/	.	(4dd\	in	.
4r	4r	12dd\L|	.	12dd\L|	.	4g\)	.	.
.	.	12b-\|	.	12b-\|	.	.	.	.
.	.	12g\J|	.	12g\J|	.	.	.	.
!	!LO:LB:g=original	!	!	!	!	!LO:LB:g=original	!	!
=135	=135	=135	=135	=135	=135	=135	=135	=135
!	!LO:TX:a:t=P:problem=brak taktu	!	!	!	!	!	!	!
4C/	1ryy	4c/	.	4c/	.	8g/L	ter-	.
.	.	.	.	.	.	8f#X/J	.	.
4r	.	12dd\L|	.	12dd\L|	.	4g\	-ra	.
.	.	12b-\|	.	12b-\|	.	.	.	.
.	.	12g\J|	.	12g\J|	.	.	.	.
4D\	.	4d/	.	4d/	.	4r	.	.
4r	.	12dd\L|	.	12dd\L|	.	4g\	in	.
.	.	12b-\|	.	12b-\|	.	.	.	.
.	.	12g\J|	.	12g\J|	.	.	.	.
=136	=136	=136	=136	=136	=136	=136	=136	=136
1E-	1e-X	2e-X/	.	2e-/	.	(4g\	ter-	.
.	.	.	.	.	.	4ee-X\	.	.
.	.	[2gg\	.	2gg\	.	4dd\	.	.
.	.	.	.	.	.	4cc#X\)	.	.
!	!	!LO:LB:g=original	!	!	!	!	!	!
=137	=137	=137	=137	=137	=137	=137	=137	=137
!	!	!LO:TX:a:t=P:problem=brak zakończenia ligatury	!	!	!	!	!	!
2D\	[1d	4gg\]	.	4gg\	.	2.dd\	-ra	.
.	.	8.ff#X\L	.	8.ff#X\L	.	.	.	.
!	!	!	!	!LO:N:vis=8	!	!	!	!
.	.	16aa\Jk	.	16aa\Jk	.	.	.	.
2F#X\	.	2a/	.	4dd\	.	.	.	.
!	!	!	!	!	!	!LO:SIC:v:s=4ccn	!	!
.	.	.	.	4cc\	.	4cc-X\	vi-	.
!	!	!	!	!LO:LB:g=original	!	!	!	!
=138	=138	=138	=138	=138	=138	=138	=138	=138
2G\	2d\]	[1g	.	2b-\	.	4b-\	-ven-	.
.	.	.	.	.	.	2gg\	.	.
2E-\	2e-X\	.	.	2cc\	.	.	.	.
.	.	.	.	.	.	4cc\	.	.
=139	=139	=139	=139	=139	=139	=139	=139	=139
!	!LO:N:vis=1	!	!	!	!	!	!	!
1D	2d\	2g/]	.	2b-\	.	2b-\	.	.
.	2ryy	2f#X/	.	2a/	.	2a\	-ti-	.
=140	=140	=140	=140	=140	=140	=140	=140	=140
2GG/	2G/	2g/	.	2g/	.	1g	-um.	.
2r	2r	2r	.	2r	.	.	.	.
=141	=141	=141	=141	=141	=141	=141	=141	=141
4r	4r	2bb-\	.	2bb-\	.	00r	.	.
4B-\	4dd\	.	.	.	.	.	.	.
4A\	4cc\	2ccc\	.	2ccc\	.	.	.	.
4F\	4a\	.	.	.	.	.	.	.
=142	=142	=142	=142	=142	=142	=142	=142	=142
4B-\	4b-\	4ddd\	.	4ddd\	.	.	.	.
4c\	8.g\L	2.eee-\	.	2.eee-\	.	.	.	.
.	16a\Jk	.	.	.	.	.	.	.
4G\	4b-\	.	.	.	.	.	.	.
4A\	4cc\	.	.	.	.	.	.	.
=143	=143	=143	=143	=143	=143	=143	=143	=143
4B-\	4f\	(16ddd\LL	.	(16ddd\LL	.	.	.	.
.	.	16ccc\JJ)	.	16ccc\JJ)	.	.	.	.
!	!	!LO:TX:a:t=P:problem=do połowy następnego taktu nuty poprawiane, wpisano obie wersje. Powinno być prawdopodobnie tak jak w vn1	!	!	!	!	!	!
!	!	!LO:N:vis=4	!	!LO:N:vis=4	!	!	!	!
.	.	4.bb- 4.gg\	.	4.bb-\	.	.	.	.
4D\	4f\	.	.	.	.	.	.	.
4E-\	4g\	4ccc 4aa\	.	4ccc\	.	.	.	.
4En\	4g\	4gg 4ee-\	.	4gg\	.	.	.	.
=144	=144	=144	=144	=144	=144	=144	=144	=144
.	.	8qqgg/	.	8qqbb-/	.	.	.	.
2F\	2c\	8aa 8ff\L	.	8.aa\L	.	.	.	.
.	.	8gg 8ee-\J	.	.	.	.	.	.
.	.	.	.	16gg\Jk	.	.	.	.
.	.	4ff 4dd\	.	[4ff\	.	.	.	.
4F\	4a\	8.ff\L	.	8.ff\L]	.	.	.	.
.	.	16ff\K	.	16ff\K	.	.	.	.
4E-X\	4cc\	8.gg\	.	8.gg\	.	.	.	.
.	.	16aa\Jk	.	16aa\Jk	.	.	.	.
=145	=145	=145	=145	=145	=145	=145	=145	=145
2D/	2f\	8.bb-\L	.	8.bb-\L	.	00r	.	.
.	.	16ff\Jk	.	16ff\Jk	.	.	.	.
.	.	2ff\	.	2ff\	.	.	.	.
2C/	2a\	.	.	.	.	.	.	.
.	.	4ee-\	.	4ee-\	.	.	.	.
=146	=146	=146	=146	=146	=146	=146	=146	=146
4BB-/	4b-\	8.dd\L	.	8.dd\L	.	.	.	.
.	.	16ee-\Jk	.	16ee-\Jk	.	.	.	.
4B-\	8.d\L	2ff\	.	2ff\	.	.	.	.
.	16e-\Jk	.	.	.	.	.	.	.
4D\	4f\	.	.	.	.	.	.	.
4E-\	4g\	4ee-\	.	4ee-\	.	.	.	.
!LO:LB:g=original	!	!LO:LB:g=original	!	!	!	!	!	!
=147	=147	=147	=147	=147	=147	=147	=147	=147
4r	4r	4.g/	.	4.g/	.	.	.	.
4E-\	4e-\	.	.	.	.	.	.	.
.	.	8cc\	.	8cc\	.	.	.	.
.	.	8qqb-/	.	8qqb-/	.	.	.	.
4F\	4d\	2a/	.	2a/	.	.	.	.
4FF/	4c\	.	.	.	.	.	.	.
!	!	!	!	!LO:LB:g=original	!	!	!	!
=148	=148	=148	=148	=148	=148	=148	=148	=148
4BB-/	4B-'/	4b-\	.	4b-\	.	.	.	.
4r	4r	12ff\L|	.	12ff\L|	.	.	.	.
.	.	12dd\|	.	12dd\|	.	.	.	.
.	.	12b-\J|	.	12b-\J|	.	.	.	.
4D\	4d'\	4d/	.	4d/	.	.	.	.
4r	4r	12ff\L|	.	12ff\L|	.	.	.	.
.	.	12dd\|	.	12dd\|	.	.	.	.
.	.	12b-\J|	.	12b-\J|	.	.	.	.
=149	=149	=149	=149	=149	=149	=149	=149	=149
4E-\	4e-'\	4e-/	.	4e-/	.	1r	.	.
4r	4r	12ff\L|	.	12ff\L|	.	.	.	.
.	.	12dd\|	.	12dd\|	.	.	.	.
.	.	12b-\J|	.	12b-\J|	.	.	.	.
4F\	4f'\	4f/	.	4f/	.	.	.	.
4r	4r	16f/LL	.	16f/LL	.	.	.	.
.	.	16e-/	.	16e-/	.	.	.	.
.	.	16d/	.	16d/	.	.	.	.
.	.	16c/JJ	.	16c/JJ	.	.	.	.
=150	=150	=150	=150	=150	=150	=150	=150	=150
!	!	!	!	!	!	!LO:TX:b:t=Da Capo	!	!
4BB-/	4B-'>/	2B-/	.	2B-/	.	1r	.	.
4r	4r	.	.	.	.	.	.	.
!	!	!	!	!LO:TX:b:t=Da Capo Ad signum	!	!	!	!
!LO:TX:b:t=Da Capo ad Signum	!LO:TX:b:t=Da Capo Ad signum	!LO:TX:b:t=Da Capo Ad Signum	!	!	!	!	!	!
2r	2r	2r	.	2r	.	.	.	.
!LO:TX:t=[segno]:problem=znak segno na kresce taktowej	!LO:TX:t=[segno]:problem=znak segno na kresce taktowej	!LO:TX:t=[segno]:problem=znak segno na kresce taktowej	!	!	!	!	!	!
==	==	==	==	==;	==	==	==	==
*-	*-	*-	*-	*-	*-	*-	*-	*-
!!!system-decoration: s1[g1][g2]
!!!RDF**kern: > = above
!!!RDF**kern: < = below
!!!RDF**dynam: p = "p:"
!!!RDF**dynam: f = "f:"
!!!ENC: Marta Lawrence
!!!END: 2020-11-04
!!!ENC: Andrzej Borzym
!!!END: 2020-05-03
!!!RDF**kern: | = vertical stroke
